X: 16472
T: Hag's Dream, The
R: slip jig
M: 9/8
K: Dmajor
A|d>fd f2g afd|d>fd f2d ecA|dfd f2g afd|faf gec d2||
A|AcA c2d ecA|fef Bcd ecA|AcA c2d efg|faf gec d2||

